X:19
T:Fenland Safari
T:Swingin' Safari
Z:Andrew Swaine <aswaine@iname.com>
M:2/4
L:1/8
K:G
P:A
D/|"G"G2B>D G2B>E|"C"G2c>E G2c>D|"G"G2B>D G2B>G|"D"F>AF>D- D>DE>F|
"G"G2B>D G2B>E|"C"G2c>E G2c>D|"G"G2B>B "D"c>AF>G-|"G"G>dd>d d>cB>A||
P:B
"G"B>G-G>D G>Bd>c-|"C"c6 d>c|"G"B>G-G>D G>AB>A-|"D"A6 G>A|
"G"B>G-G>D G>Bd>c-|"C"c6 d>c|"G"B>G-G>D "Gm"_B>BA>G-|"G"G>DD>D D>DD3/2||\
P:last
"G"G8||
